icon-themes/breeze_svg/cmd/32/pararighttoleft.svg

<svg viewBox="0 0 32 32" xmlns="http://www.w3.org/2000/svg"><path d="m15 4a8 7.5 0 0 0 -8 7.5 8 7.5 0 0 0 8 7.5v9h1v-23h2v13h1v-14h-1-2zm7 14-4 4-1 1 1 1 4 4 .707031-.707031-3.792969-3.792969h9.085938v-1h-9.085938l3.792969-3.792969z" fill="#4d4d4d"/></svg>

<svg xmlns="http://www.w3.org/2000/svg" viewBox="0 0 32 32">
 <path 
     style="fill:#4d4d4d" 
     d="M 15 4 A 8 7.5 0 0 0 7 11.5 A 8 7.5 0 0 0 15 19 L 15 28 L 16 28 L 16 5 L 18 5 L 18 18 L 19 18 L 19 4 L 18 4 L 16 4 L 15 4 z M 22 18 L 18 22 L 17 23 L 18 24 L 22 28 L 22.707031 27.292969 L 18.914062 23.5 L 28 23.5 L 28 22.5 L 18.914062 22.5 L 22.707031 18.707031 L 22 18 z "
     />
</svg>
